X:365
T:Butlers of Glen Avenue, The
R:jig
C:Anthony Sullivan
Z:id:hn-jig-365
M:6/8
L:1/8
K:G
DEG EDB, | DEG A~B2 | DEG B2e | dBe dBA |
DEG EDB, | DEG A~B2 | ~d3 gfe | dBA G3 :|
|: gab age | deg ~B3 | gab gab | dBd ~e3 |
gab age | dBd ~B3 | ~d3 gfe | dBA G3 :|
P:variations
|: DEG EDB | DEG ~B3 | DEG ABe | dBe dBA |
DEG EDB | DEG ~B3 | dB/c/d gfe | dBA G3 :|
|: gab age | deg ~B3 | gab gab | dB/c/d e2d |
gab age | deg ~B3 | dB/c/d gfe | dBA G3 :|

